src/pos-icons/book-music.svg

<svg height="24" viewBox="0 0 24 24" width="24" xmlns="http://www.w3.org/2000/svg"><path d="m18 22h-12a2 2 0 0 1 -2-2v-16c0-1.11.9-2 2-2h1v7l2.5-1.5 2.5 1.5v-7h6a2 2 0 0 1 2 2v16a2 2 0 0 1 -2 2m-5-7a2 2 0 0 0 -2 2 2 2 0 0 0 2 2 2 2 0 0 0 2-2v-5h3v-2h-4v5.27c-.29-.17-.64-.27-1-.27z"/></svg>

<?xml version="1.0" encoding="UTF-8"?><!DOCTYPE svg PUBLIC "-//W3C//DTD SVG 1.1//EN" "http://www.w3.org/Graphics/SVG/1.1/DTD/svg11.dtd"><svg xmlns="http://www.w3.org/2000/svg" xmlns:xlink="http://www.w3.org/1999/xlink" version="1.1" id="mdi-book-music" width="24" height="24" viewBox="0 0 24 24"><path d="M18,22H6A2,2 0 0,1 4,20V4C4,2.89 4.9,2 6,2H7V9L9.5,7.5L12,9V2H18A2,2 0 0,1 20,4V20A2,2 0 0,1 18,22M13,15A2,2 0 0,0 11,17A2,2 0 0,0 13,19A2,2 0 0,0 15,17V12H18V10H14V15.27C13.71,15.1 13.36,15 13,15Z" /></svg>
